X:175
T:Polska efter Per Karlsson Viksten
T:(SvL Jämtland 175)
R:Polska
S:Per Karlsson Viksten
O:Undersåker, Jämtland
B:Svenska Låtar Jämtland
M:3/4
L:1/8
K:A
uc|de (3f(ed) dc|cd (3e(fg) ga|ag fe ^de|(3f(ef) (3g(fe) ^df|fe [ee]3:|
|:uc|de (3f(ed) dc|(3c(Bc) dB (B{cB})A-|A(G A)c Bd|(3c(Ac) (3B(AG) (3A(Bc)|(3B(AG) [AA]3:|

